X:1
T:Veni Sancte Spiritus
T:Veni Sancte Spiritus
T:André Vierendeels (08/11/09)
C:André Vierendeels
C:(08/11/09)
%%score [ 1 2 3 4 ]
L:1/8
Q:1/4=120
M:3/4
K:F
V:1 treble nm="Soprano" snm="S"
V:2 treble nm="Alto" snm="A"
V:3 treble-8 nm="Tenor" snm="T"
V:4 bass nm="Bas" snm="B"
V:1
 A4 B2 | A4 F2 | G2 B2 c2 | A6 | A4 B2 | c4 F2 | c2 A2 B2 | A6 | A4 B2 | A4 c2 | A4 B2 | A6 :: %12
w: Ve- ni|San- cte|Spi- * ri-|tus|et e-|mit- te|coe- * li-|tus|Lu- cis|tu- ae|ra- di-|um.|
w: Ve- ni|Pa- ter|pau- * pe-|rum,|ve- ni|da- tor|mu- * ne-|rum,|ve- ni|lu- men|cor- di-|um.|
w: ||||||||||||
 A4 c2 | d4 d2 | c2 =B2 c2 | d6 | c4 A2 | c2 =B2 G2 | F2 E2 D2 | C6 | G4 F2 | G2 A2 G2 | FE D2 C2 | %23
w: Con- so-|la- tur|op- * ti-|me,|dul- cis|hos- * pes|a- * ni-|mae,|dul- ce|re- * fri-|ge- * * ri-|
w: |||||||||||
w: In la-|bo- re|re- * qui-|es,|in aes-|tu _ tem-|pe- * ri-|es,|in fle-|tu _ so-|la- * * ti-|
 D6 :: A4 F2 | E4 A2 | A4 G2 | A6 | A4 A2 | c4 A2 | A4 c2 | A6 | G4 D2 | F4 E2 | A4 G2 | A6 :: %36
w: um.|O lux|be- a-|tis- si-|ma,|re- ple|cor- dis|in- ti-|ma|tu- o-|rum fi-|de- li-|um.|
w: |||||||||||||
w: um.|Si- ne|tu- o|nu- mi-|ne,|ni- hil|est in|ho- mi-|ne,|ni- hil|est in|no- xi-|um.|
 E4 E2 | G4 d2 | A2 G2 F2 | E6 | c4 A2 | A4 A2 | G2 A2 c2 | A6 | G4 G2 | c4 d2 | A4 G2 | A6 :: %48
w: La- va|quod est|sor- * di-|dum,|ri- ga|quod est|a- * ri-|dum,|sa- na|quod est|sau- ci-|um.|
w: ||||||||||||
w: Flec- cte|quod est|ri- * gi-|um,-|fo- ve|qud est|fri- * gi-|dum,|re- ge|qued est|de- vi-|um.-|
 d4 d2 | G4 A2 | c4 =B2 | A6 | E4 G2 | F2 G2 F2 | c4 G2 | A6 | =B4 E2 | F4 F2 | A4 A2 | A6 :| A6 | %61
w: Da tu-|is fi-|de- li-|bus,|in te|con- * fi-|den- ti-|bus,|sa- crum|sep- te-|na- ri-|um.|A-|
w: Da vir-|tu- tis|me- ri-|tum,|da sa-|lu- * tis|ex- i-|um,-|da per-|||||
w: |||||||||en- ne|gau- di-|um.||
 c6 | A6 | c4 c2 | A4 G2 | A6 |] %66
w: men.|_|Al- le|lu- *|ia.|
w: |||||
w: |||||
V:2
 C4 D2 | E4 F2 | E2 D2 C2 | D6 | F4 G2 | A4 B2 | cA F2 G2 | A6 | C4 D2 | F4 G2 | FE D2 C2 | D6 :: %12
w: ||||||||||||
w: Ve- ni|San- cte|Spi- * ri-|tus|et e-|mit- te|coe- * * li-|tus|Lu- cis|tu- ae|ra- * * di-|um.|
w: Ve- ni|Pa- ter|pau- * pe-|rum,|ve- ni|da- tor|mu- * * ne-|rum,|ve- ni|lu- men|cor- * * di-|um.|
 E4 E2 | A4 F2 | E4 F2 | A6 | F4 C2 | C2 E2 G2 | A2 =B2 c2 | A6 | G4 A2 | D2 F2 G2 | D4 G2 | D6 :: %24
w: Con- so-|la- tur|op- ti-|me,|dul- cis|hos- * pes|a- * ni-|mae,|dul- ce|re- * fri-|ge- ri-|um.|
w: ||||||||||||
w: In la-|bo- re|re- qui-|es,|in aes-|tu _ tem-|pe- * ri-|es,|in fle-|tu _ so-|la- ti-|um.|
 F4 A2 | E4 E2 | F4 E2 | E6 | C4 D2 | E4 A2 | A2 F2 E2 | D6 | D4 D2 | C4 C2 | F4 G2 | D6 :: C4 E2 | %37
w: O lux|be- a-|tis- si-|ma,|re- ple|cor- dis|in- * ti-|ma|tu- o-|rum fi-|de- li-|um.|La- va|
w: |||||||||||||
w: Si- ne|tu- o|nu- mi-|ne,|ni- hil|est in|ho- * mi-|ne,|ni- hil|est in|no- xi-|um.|Fle- cte|
 D4 G2 | E4 C2 | C6 | F4 C2 | D4 D2 | D2 F2 G2 | F6 | G4 E2 | E4 D2 | E4 F2 | E6 :: F4 G2 | D4 D2 | %50
w: quod est|sor- di-|dum,|ri- ga|quod est|a- * ri-|dum,|sa- na|quod est|sau- ci-|um.|Da tu-|is fi-|
w: |||||||||||||
w: quod est|ri- gi-|dum,|fo- ve|quod est|fri- * gi-|dum,|re- ge|quod est|de- vi-|um.|Da vir-|tu- tis|
 E4 D2 | D6 | A4 B2 | A2 G2 A2 | F4 G2 | F6 | G4 =B,2 | C4 D2 | D4 C2 | D6 :| F6 | G6 | D6 | %63
w: de- li-|bus,|in te|con- * fi-|den- ti|bus,|sa- crum|sep- te|na- ri-|um.|A-|men.|_|
w: |||||||||||||
w: me- ri-|tum,|da sa-|lu- * tis|ex- i-|tum,|da per-|en- ne|gau- di-|um.||||
 E4 F2 | E4 A2 | ^F6 |] %66
w: Al- le-|lu- *|ia.|
w: |||
w: |||
V:3
 A4 G2 | c4 B2 | G2 F2 G2 | A6 | d4 d2 | f4 d2 | e2 d4 | d6 | e4 f2 | c4 G2 | A4 G2 | A6 :: c4 c2 | %13
w: Ve- ni|San- cte|Spi- * ri-|tus|et e-|mit- te|coe- li-|tus|Lu- cis|tu- ae|ra- di-|um.|Con- so-|
w: Ve- ni|Pa- ter|pau- * pe-|rum,|ve- ni|da- tor|mu- ne-|rum,|ve- ni|lu- men|cor- di-|um.|In la-|
 F4 A2 | c4 A2 | A6 | A4 A2 | G4 c2 | c2 G2 F2 | E6 | =B2 e2 c2 | B2 c2 c2 | A4 c2 | A6 :: d4 d2 | %25
w: la- tur|op- ti-|me,|dul- cis|hos- pes|a- * ni-|mae,|dul- * ce|re- * fri-|ge- ri-|um.|O lux|
w: bo- re|re- qui-|es,|in aes-|tu tem-|pe- * ri-|es,|in _ fle-|tu _ so-|la- ti-|um.|Si- ne|
 c2 =B2 c2 | d2 c2 =B2 | A6 | F4 D2 | C4 D2 | F4 G2 | F6 | G2 A2 B2 | A4 G2 | FE D2 C2 | D6 :: %36
w: be- * a-|tis- * si-|ma,|re- ple|cor- dis|in- ti-|ma|tu- * o-|rum fi-|de- * * li-|um.|
w: tu- * o|nu- * mi-|ne,|ni- il|est in|ho- mi-|ne,|ni- * hil|est in|no- * * xi-|um.|
 A4 A2 | G4 G2 | A2 E2 F2 | C6 | F4 F2 | A4 F2 | B2 c2 B2 | d6 | =B4 B2 | A2 c2 =B2 | A4 d2 | c6 :: %48
w: La- va|quod est|sor- * di-|dum,|ri- ga|quod est|a- * ri-|dum,|sa- na|quod _ est|sau- ci-|um.|
w: Fle- cte|quod est|ri- * gi-|dum,|fo- ve|quod est|fri- * gi-|dum,|re- ge|quod _ est|de- vi-|um.|
 A4 =B2 | =B4 A2 | G4 G2 | A6 | c4 d2 | F2 B2 A2 | G4 =B2 | c6 | E4 G2 | A4 D2 | F4 E2 | D6 :| D6 | %61
w: Da tu-|is fi-|de- li-|bus,|in te|con- * fi-|den- ti-|bus,|sa- crum|sep- te-|na- ri-|um.|A-|
w: Da vir-|tu- tis|me- ri-|tum,|da sa-|lu- * tis|ex- i-|tum,|da per-|en- ne|gau- di-|um.||
 E6 | A6 | G4 A2 | d2 ^c2 e2 | d6 |] %66
w: men.|_|Al- le-|lu- * *|ia.|
w: |||||
V:4
 F,4 F,2 | A,4 D,2 | C,2 D,2 E,2 | D,6 | D,4 G,2 | F,4 B,2 | A,2 D,2 G,2 | D,6 | A,4 G,2 | %9
w: Ve- ni|Sa- cte|Spi- * ri-|tus|et e-|mit- te|coe- * li-|tus|Lu- cis|
w: Ve- ni|Pa- ter|pau- * pe-|rum,|ve- ni|da- tor|mu- * ne-|rum,|ve- ni|
 F,4 E,2 | F,4 E,2 | D,6 :: A,4 A,2 | D,4 D,2 | A,4 F,2 | D,6 | F,4 F,2 | E,4 E,2 | F,2 G,2 D,2 | %19
w: tu- ae|ra- di-|um.|Con- so-|la- tur|op- ti-|me,|dul- cis|hos- pes|a- * ni-|
w: lu- men|cor- di-|um.|In la-|bo- re|re- qui-|es,|in aes-|tu tem-|pe- * ri-|
 A,,6 | E,2 C,2 F,2 | B,2 F,2 E,2 | D,4 E,2 | D,6 :: D,4 D,2 | A,,4 A,,2 | D,4 E,2 | A,6 | %28
w: mae,|dul- * ce|re- * fri-|ge- ri-|um.|O lux|be- a-|tis- si-|ma,|
w: es,|in _ fle-|tu _ so-|la- ti-|um.|Si- ne|tu- o|nu- mi-|ne,|
 F,4 F,2 | G,4 F,2 | D,4 C,2 | D,6 | G,,4 G,2 | F,4 C,2 | D,4 E,2 | D,6 :: A,4 C2 | =B,2 A,2 B,2 | %38
w: re- ple|cor- dis|in- ti-|ma|tu- o-|rum fi-|de- li-|um.|La- va|quod _ st|
w: ni- hil|est in|ho- mi-|ne,|ni- hil|est in|no- xi-|um.|Fle- cte|quod _ est|
 C2 =B,2 A,2 | G,6 | A,4 A,2 | F,2 E,2 F,2 | G,2 F,2 E,2 | D,6 | E,4 G,2 | A,4 G,2 | C4 =B,2 | %47
w: sor- * di-|dum,|ri- ga|quod _ est|a- * ri-|dum,|sa- na|quod est|sau- ci-|
w: ri- * gi-|dum,|fo- ve|quod _ est|fri- * gi-|dum,|re- ge|quod est|de- vi-|
 A,6 :: D,4 G,2 | G,4 D,2 | C,4 G,,2 | D,6 | A,4 G,2 | D,2 C,2 F,2 | C,4 E,2 | F,6 | E,4 E,2 | %57
w: um.|Da tu-|is fi-|de- li-|bus,|in te|con- * fi-|den- ti-|bus,|sa- crum|
w: um.|Da vir-|tu- tis|me- ri-|tum,|da sa-|lu- * tis|ex- i-|tum,|da per-|
 D,4 B,,2 | D,4 A,,2 | D,6 :| D,2 E,2 D,2 | C,6 | D,6 | C,4 F,2 | E,4 D,2 | D,6 |] %66
w: sep- te-|na- ri-|um.|A- * *|men.|_|Al- le-|lu- *|ia.|
w: en- ne|gau- di-|um.|||||||

